assets/fc/fc-tree-structure.svg

<svg xmlns="http://www.w3.org/2000/svg" width="100%" height="100%" viewBox="0 0 48 48"><path fill="#90CAF9" d="M36.9 13.8l-1.8-3.6L7.5 24l27.6 13.8 1.8-3.6L16.5 24z"/><path fill="#D81B60" d="M6 18h12v12H6z"/><g fill="#2196F3"><path d="M30 6h12v12H30zM30 30h12v12H30z"/></g></svg>

<svg xmlns="http://www.w3.org/2000/svg" width="100%" height="100%" viewBox="0 0 48 48"><path fill="#90CAF9" d="M36.9 13.8L35.1 10.2 7.5 24 35.1 37.8 36.9 34.2 16.5 24z"/><path fill="#D81B60" d="M6 18H18V30H6z"/><g fill="#2196F3"><path d="M30 6H42V18H30zM30 30H42V42H30z"/></g></svg>
